X:420
%%etbk:tnset id:125,pos:2,rep:3x,ant:
%%etbk:tnset id:129,pos:3,rep:3x,ant:
%%etbk:tnset id:260,pos:13,rep:2x,ant:
%%etbk:tnset id:277,pos:2,rep:3x,ant:
%%etbk:wsite http://www.thesession.org/tunes/display/82
%%etbk:pldat 2016-06-22T16:40,2016-06-20T18:41,2016-05-05T14:58,2016-05-03T15:49,2016-03-05T14:26,2016-02-23T17:27,2015-10-28T17:11,2015-10-26T18:09,2015-10-07T17:40,2015-06-21T15:20,2015-03-11T17:04,2014-11-02T14:35,2014-10-30T19:15,2014-10-29T16:18,2014-10-28T16:37,2014-10-25T15:30,2014-09-04T18:15,2014-09-03T18:25,2014-09-02T18:21,2014-09-01T18:21,2014-08-31T12:14,2014-08-28T18:18,2014-08-27T18:27,2014-08-26T16:10,2014-08-24T11:25,2014-08-21T18:54,2014-08-06T18:26,2014-08-03T14:44,2014-08-02T16:16,2014-07-26T14:55,2014-07-21T20:57,2014-07-18T10:38,2014-07-13T15:08,2014-07-02T10:22,2014-06-22T16:30,2014-06-09T15:01,2014-02-26T16:40,2014-01-22T16:48,2014-01-21T17:48,2014-01-19T14:09,2014-01-18T14:44,2014-01-17T18:03,2014-01-15T16:18,2013-10-26T17:18
T: Pride Of Petravore, The
Z: Piano Box Version by Martin Fleischmann
H: Created 2013-02-19 /  Last Modified 2013-02-19
M: 4/4
L: 1/8
R: hornpipe
K: Emin
|:"em"!1!E!2!E!1!EF !3!GFG!4!A | !3!BcBA !1!G2!2!E!4!G | "D"!1!D3E !3!F2F!4!G | !2!ABA!1!G !3!FF!1!D!3!F |
"em"!1!E3 F !3!GFG!4!A | !3!BcBA !1!G3A | !3!B3c "D"!3!B!1!A!2!F!3!G | "em"!1!E2 !3!(3E!2!E!1!E !1!E4:|
|:"C"!2!e2ee e2!4!ge | "G"!1!d!3!B!1!GA !3!B4 | "D"!3!B!1!A!2!F!3!G !4!A4  | "em"!4!A!3!G!1!E!2!D !1!E4 |
"C"!2!e2ee !4!gege | "G"!1!d!3!B!1!GA !3!B4 |  "D"!3!B3c !3!B!1!A!2!F!3!G | "em"!1!E2 !3!(3E!2!E!1!E !1!E4:|


